X:159
T:Reel 159
M:4/4
K:Dmaj
L:1/8
cB|AD (3FED ADFD|ECA,D CDEG|AD (3DDD ADFD||EFEA FDD:||2dc (3ABc d2dB|Adde fddf|edcd edcB|Addc dcdf|eaag fdd2|Addc dfed|cdef gfec|ABcd eded|cAGE FDD|
